dist/img/contact-us/mail.svg

<svg width="20" height="20" viewBox="0 0 20 20" fill="none" xmlns="http://www.w3.org/2000/svg"><path d="M3.33335 3.33331C2.41252 3.33331 1.66669 4.07915 1.66669 4.99998V15C1.66669 15.9208 2.41252 16.6666 3.33335 16.6666H16.6667C17.5875 16.6666 18.3334 15.9208 18.3334 15V4.99998C18.3334 4.07915 17.5875 3.33331 16.6667 3.33331H3.33335ZM3.33335 4.99998H16.6667V5.83494L10 9.99998L3.33335 5.83494V4.99998ZM3.33335 7.50161L10 11.6666L16.6667 7.50161V15H3.33335V7.50161Z" fill="#8F9190"/></svg>

<svg width="20" height="20" viewBox="0 0 20 20" fill="none" xmlns="http://www.w3.org/2000/svg"><path d="M3.333 3.333c-.92 0-1.666.746-1.666 1.667v10c0 .92.746 1.667 1.666 1.667h13.334c.92 0 1.666-.746 1.666-1.667V5c0-.92-.745-1.667-1.666-1.667H3.333zm0 1.667h13.334v.835L10 10 3.333 5.835V5zm0 2.502L10 11.667l6.667-4.165V15H3.333V7.502z" fill="#8F9190"/></svg>
